X: 17818
T: Hop, Skip, Jump!
R: slide
M: 12/8
K: Emajor
cec|:B2 c efg b2 g f2 a|g2 f efg f2 e c2 e|
B2 c efg b2 g f2 a|1 gfe fec e3 c2 e:|2 gfe fec e3 efg||
f2 B b2 a gfe B2 e|c2 e B2 e A2 e GBe|
f2 B b2 a gfe B2 B|1 cBG B2 G E3 efg|2 cBG B2 G E3 E3||

